X:1
T:James Gibb editions
T:Exsurge Domine - Scarlatti
T:#
%%score [ 1 2 3 4 ]
L:1/8
Q:1/4=180
M:none
K:D
V:1 treble nm="Soprano" snm="S"
V:2 treble nm="Alto" snm="A"
V:3 treble-8 nm="Tenor" snm="T"
V:4 bass nm="Bass" snm="B"
V:1
"^Exsurge Domine""^Alessandro Scarlatti\n(1660-1725)" A8 B8 | c8 (d6 c2 | B2 A2 G2 F2 E6) E2 | %3
w: Ex- sur-|ge, Do\- *|* * * * * mi-|
 D4 d8 A4 | B4 c2 d2 (c2 d2 c2 B2 | A12 ^G4 | c8) d8 | z4 A8 A4 | B4 d4 (B8 | A6 G2 F2 E2 D4) | %10
w: ne, non prae-|va- le- at ho\- * * *||* mo:|ju- di-|cen- tur gen\-||
[M:4/2] E8 z8 | A8 B8 | c6 d2 (e4 f4 | e8) A8 | z16 | z8 A8 | B8 c8 | (d6 c2 B2 A2 G2 F2 | %18
w: tes|in con-|spe- ctu tu\- *|* o.||Ex-|sur- ge,|Do\- * * * * *|
 E6) E2 D4 d4- | d4 A4 B4 c2 d2 | (c2 B2 A8 ^G2 F2 | E4 c6 B2 A4 | B8) A4 e4- | e4 A4 B4 c2 d2 | %24
w: * mi- ne, non|* prae- va- le- at|ho\- * * * *||* mo, non|* prae- va- le- at|
 (c2 d2 e2 c2 d2 c2 B4) | A4 A8 A4 | B4 d4 (G8 | A6 G2 F2 E2 D4) | E8 z4 A4- | A4 A4 B4 d4 | %30
w: ho\- * * * * * *|mo: ju- di-|cen- tur gen\-||tes, ju\-|* di- cen- tur|
 z4 (c2 d2 e4 d4- | d4 c6 B2 A2 G2 | F2 G2 F2 E2 D4 E4 | E8) A8 | B8 c8 | d4 B8 A4 | z4 d8 D4 | %37
w: gen\- * * *|||tes in|con- spe-|ctu tu- o;|non prae-|
 E4 F2 G2 (F2 G2 F2 E2) | D8 A4 A4- | A4 B8 c4- | c4 d4 d6 c2 | B8 A8 | A16 | A8 | A16 || %45
w: va- le- at ho\- * * *|mo: ju- di\-|* cen- tur|* gen- tes in|con- spe-|ctu|tu-|o.|
"^Largo"[Q:1/4=150] B8 B4 B4 | B8 B4 B4- | B2 B2 B2 B2 B8 | A4 A4 A8- | A4 ^G4 || %50
w: In con- ver-|ten- do i~\-|* ni- mi- cum me-|um re- tror\-|* sum,|
[Q:1/4=150][Q:1/4=150][Q:1/4=150][Q:1/4=150] z4 ^G4 G4 G4 | ^G8 G8 | c8 c4 c4 | c8 c8 | %54
w: in- fir- ma-|bun- tur,|in- fir- ma-|bun- tur,|
 z4 f4 (d4 B4) | c4 d4 z8 | A8 B6 B2 | A8 || E16 | F16 |] %60
w: et per\- *|i- bunt|a fa- ci-|e|tu-|a.|
V:2
 z16 | z16 | z16 | D8 F8 | ^G8 (A6 G2 | F2 E2 D2 C2 B,6) B,2 | A,4 A8 D4 | E4 F2 G2 (A2 G2 F2 E2 | %8
w: |||Ex- sur-|ge, Do\- *|* * * * * mi-|ne, non prae-|va- le- at ho\- * * *|
 D12 C4 | F8) A8 |[M:4/2] z4 E8 E4 | F4 A4 (D8 | E2 D2 C2 B,2) A,8 | z8 z4 A4- | A4 D4 E4 F2 G2 | %15
w: |* mo:|ju- di-|cen- tur gen\-|* * * * tes;|non|* prae- va- le- at|
 F8 E4 C4 | (F4 E2 D2) E4 F4 | (B,6 C2 D8- | D4 C4 D2 E2 F2 G2 | A4 F4) E8 | z8 D8 | E4 E8 C4 | %22
w: ho- mo: ju-|di\- * * cen- tur|gen\- * *||* * tes|in|con- spe- ctu|
 E8 E8 | z16 | z4 A8 D4 | E4 F2 G2 (F2 G2 F2 E2 | D12 C4 | F8) A8 | z4 E8 E4 | F4 A4 D8 | E8 z8 | %31
w: tu- o;||non prae-|va- le- at ho\- * * *||* mo:|ju- di-|cen- tur gen-|tes;|
 z8 D8 | F8 ^G8 | (A6 ^G2 F2 E2 D2 C2 | B,6) B,2 A,4 A4- | A4 D4 E4 F2 G2 | (F2 G2 F2 E2 D8- | %37
w: Ex-|sur- ge,|Do\- * * * * *|* mi- ne, non|* prae- va- le- at|ho\- * * * *|
 D4 C4) D4 A4- | A4 G8 F2 E2 | F8 G8 | z4 A8 G4 | G12 F4 | (F4 E2 D2 E8- | E8 | F16) || F8 F4 F4 | %46
w: * * mo: ju\-|* di- cen- tur|gen- tes|in con-|spe- ctu|tu\- * * *||o.|In con- ver-|
 F8 F8 | E6 E2 E4 E4 | E4 E6 D2 D4 | E8 || z4 ^E4 E4 E4 | F12 ^E4 | z4 F4 F4 F4 | (F4 E4) F8 | %54
w: ten- do|i- ni- mi- cum|me- um re- tror-|sum,|in- fir- ma-|bun- tur,|in- fir- ma-|bun\- * tur,|
 z8 F4 G4 | G4 F4 z8 | z4 D8 E3 D | C4 (D4- || D4 C2 B,2 C8 | D16) |] %60
w: et per-|i- bunt|a fa- ci-|e tu\-||a.|
V:3
 z16 | z16 | z16 | z16 | z16 | z16 | A8 B8 | c8 (d6 c2 | B2 A2 G2 F2 E6) E2 | D4 d8 A4 | %10
w: ||||||Ex- sur-|ge, Do\- *|* * * * * mi-|ne, non prae-|
[M:4/2][K:treble-8] B4 c2 d2 (c2 d2 c2 B2 | c12 ^G4 | c2 B2 A2 B2 c4 d4- | d4 c4 d6 e2 | f8) e8 | %15
w: va- le- at ho\- * * *||||* mo:|
 z4 A8 e4 | (d4 c2 B2) A8 | (G6 A2 B2 c2) d4 | z8 D8 | F8 ^G8 | (A2 G2 F2 E2 D4 B4- | %21
w: ju- di-|cen\- * * tur|gen\- * * * tes;|Ex-|sur- ge,|Do\- * * * * *|
 B4 A4 G4 A4- | A4) ^G4 A8 | z16 | A8 B8 | c8 (d6 c2 | B2 A2 G2 F2 E6 E2) | D4 d8 A4 | %28
w: |* mi- ne,||ex- sur-|ge, Do\- *|* * * * * mi-|ne, non prae-|
 B4 c2 d2 (c2 d2 c2 B2 | A12 ^G4 | c2 d2 e2 d2 c2 B2 A4 | G4 A6 G2 F2 G2 | A8 B8 | %33
w: va- le- at ho\- * * *|||||
 c2 d2 c2 B2 A8- | A4 ^G4) A8 | z8 z4 A4- | A4 A4 B4 d4 | G8 A4 A4 | B8 c8 | d4 d8 c2 B2 | %40
w: |* * mo:|ju\-|* di- cen- tur|gen- tes in|con- spe-|ctu tu\- * *|
 A8 B4 B4- | B4 B4 c8 | d4 (d8 c2 B2 | c8) | d16 || ^d8 d4 d4 | ^d8 d8 | B6 B2 d2 d2 d4- | %48
w: * o, in|* con- spe-|ctu tu\- * *||o.|In con- ver-|ten- do|i- ni- mi- cum me\-|
 d4 =c6 B2 A4 | B8 || z4 c4 c4 c4- | c4 B4 c8 | z4 ^A4 A4 A4 | B8 ^A8 | f4 d4 B2 c2 d4 | e4 A4 z8 | %56
w: * um re- tror-|sum,|in- fir- ma\-|* bun- tur,|in- fir- ma-|bun- tur,|et per- i\- * *|* bunt|
 z4 A8 G4- | G2 G2 F4 || A16 | A16 |] %60
w: a fa\-|* ci- e|tu-|a.|
V:4
 z16 | z16 | z16 | z16 | z16 | z16 | z16 | z16 | z16 | D,8 F,8 |[M:4/2] ^G,8 (A,6 G,2 | %11
w: |||||||||Ex- sur-|ge, Do\- *|
 F,2 E,2 D,2 C,2 B,,6) B,,2 | A,,4 A,8 D,4 | E,4 F,2 G,2 (F,2 G,2 F,2 E,2 | D,12 C,4 | %15
w: * * * * * mi-|ne, non prae-|va- le- at ho\- * * *||
 D,4 F,4) A,8 | z8 A,6 A,2 | B,4 D4 (G,8 | A,6 G,2 F,2 E,2) D,4 | z16 | A,,8 B,,8 | %21
w: * * mo:|ju- di-|cen- tur gen\-|* * * * tes||in con\--|
 C,6 D,2 (E,4 F,4 | E,8) A,,8 | z16 | z16 | z16 | z16 | D,8 F,8 | ^G,8 (A,6 G,2 | %29
w: spe- ctu tu\- *|* o;|||||Ex- sur-|ge, Do\- *|
 F,2 E,2 D,2 C,2 B,,6"^i" B,,2) | A,,4 A,8 D,4 | E,4 F,2 G,2 (F,6 E,2 | D,2 E,2 D,2 C,2 B,,4 E,4) | %33
w: * * * * * mi-|ne, non prae-|va- le- at ho\- *||
 A,,8 z8 | z8 A,,8 | B,,8 C,8 | D,8 (G,6 F,2 | E,8) D,8 | z16 | D,8 E,8 | F,8 G,8- | G,8 A,8- | %42
w: mo:|ju-|di- cen-|tur gen\- *|* tes||in con-|spe- ctu|* tu\-|
 A,16 | A,8 | D,16 || B,8 B,4 B,4 | B,8 B,8 | ^G,6 G,2 G,4 G,4 | A,4 A,2 A,2 =F,8 | E,8 || %50
w: ||o.|In con- ver-|ten- do|i- ni- mi- cum|me- um re- tror-|sum,|
 C,8 C,4 C,4 | D,8 C,8 | z4 F,4 F,4 F,4 | G,8 F,8 | z8 B,4 G,4 | E,4 D,4 z8 | F,,8 G,,6 G,,2 | %57
w: in- fìr- ma-|bun- tur,|in- fìr- ma-|bun- tur,|et per-|i- bunt|a fa- ci-|
 A,,8 || A,,16 | D,16 |] %60
w: e|tu-|a.|

